static/characters/youkanman/back-walking-1.svg

<svg height="182" width="160" xmlns="http://www.w3.org/2000/svg" xml:space="preserve" style="fill-rule:evenodd;clip-rule:evenodd;stroke-linecap:round;stroke-linejoin:round;stroke-miterlimit:1.5"><g opacity=".95"><path d="m542.173 844.83.977-139.625 145.559-72.779 45.537 22.827 1.221 137.42-148.739 76.039-44.555-23.882Z" style="fill:#6c4444;stroke:#000;stroke-width:2.76px" transform="matrix(-.362 0 0 .362 318.32 -181.651)"/><path style="fill:#5e3b3b;fill-rule:nonzero" d="M1566 856.517h86.762v86.762H1566z" transform="matrix(-.04849 -.02425 0 .04849 155.577 58.787)"/><path style="fill:#5e3b3b;fill-rule:nonzero" d="M791.193 856.517h86.762v86.762h-86.762z" transform="matrix(-.04849 -.02425 0 .04849 151.293 56.12)"/><path d="M547.667 1527.12c151.871 176.6 329.653 364.07 373.368 158.63 1.698-13.06 9.491-36.86 36.473-15.81 2.802 2.18 19.918 32.33 19.918 32.33-36.519 130.59-94.101 158.94-195.456 100.89-33.193-19.02-247.901-222.58-280.698-281.39" style="fill:#5e3b3b;fill-rule:nonzero" transform="matrix(-.04849 -.02425 0 .04849 144.851 61.735)"/><path d="m1382.65 1834.37-1.1-150.4c-2.48-17.48 13.67-35.09 39.36-14.8 3.04 2.4 15.25 25.91 15.25 25.91l.96 132.89" style="fill:#5e3b3b;fill-rule:nonzero" transform="matrix(-.04849 -.02425 0 .04849 146.284 62.595)"/><path d="m1437.12 1827.97 2.6 357.81c-1.46 20.05-23.49 24.15-40.58 10.65-2.8-2.21-14.03-26.28-14.03-26.28l-2.46-335.78" style="fill-rule:nonzero" transform="matrix(-.04849 -.02425 0 .04849 146.284 62.595)"/><path d="m1222.99 1088.56-185.63-336.965 38.33-22.195 46.41 82.727h201.77l46.41-82.727 38.34 22.195-185.63 336.965Zm-80.71-234.061 80.71 143.258 80.7-143.258h-161.41Z" style="fill:#5e3b3b;fill-rule:nonzero" transform="matrix(-.04849 -.02425 0 .04849 153.938 59.107)"/><path d="M2012.23 1032.13c-24.53 23.49-50.86 44.88-79.01 62.63l-34.27-16.69-14.15-29.87c48.82-24.95 91.52-56.036 128.1-93.244" style="fill:#5e3b3b;fill-rule:nonzero" transform="matrix(-.04849 -.02425 0 .04849 149.911 64.648)"/><path d="M2012.9 954.956a478.284 478.284 0 0 0 25.25-27.819c43.04-51.116 76.67-121.736 100.88-211.861l27.58-1.668 26.9 25.881c9.42 5.38 10.14 17.61-3.31 22.991-28.25 78.018-58.03 152.185-93.01 197.92-24.2 31.533-55.56 43.57-84.96 71.73" style="fill-rule:nonzero" transform="matrix(-.04849 -.02425 0 .04849 149.911 64.648)"/><path d="m702.177 596.153 512.733 2.672v41.795H700.395l1.782-44.467Z" style="fill-rule:nonzero" transform="matrix(-.04849 -.02425 0 .04849 138.601 67.506)"/><path d="m702.177 596.153 512.733 2.672v41.795H700.395l1.782-44.467Z" style="fill-rule:nonzero" transform="matrix(-.04849 -.02425 0 .04849 128.907 47.233)"/><path d="m702.177 596.153 512.733 2.672v41.795H700.395l1.782-44.467Z" style="fill-rule:nonzero" transform="matrix(-.04849 -.02425 0 .04849 153.822 59.449)"/><path d="m702.177 596.153 512.733 2.672v41.795H700.395l1.782-44.467Z" style="fill:#5e3b3b;fill-rule:nonzero" transform="matrix(-.04849 -.02425 0 .04849 154.533 109.655)"/><path d="m702.177 596.153 512.733 2.672v41.795H700.395l1.782-44.467Z" style="fill:#5e3b3b;fill-rule:nonzero" transform="matrix(-.04849 -.02425 0 .04849 129.584 97.18)"/><path d="m702.177 596.153 512.733 2.672v41.795H700.395l1.782-44.467Z" style="fill-rule:nonzero" transform="matrix(-.02867 .01415 0 .04849 141.798 33.247)"/><path d="m702.177 596.153 512.733 2.672v41.795H700.395l1.782-44.467Z" style="fill-rule:nonzero" transform="matrix(-.02867 .01415 0 .04849 88.345 7.782)"/><path d="m702.177 596.153 512.733 2.672v41.795H700.395l1.782-44.467Z" style="fill:#5e3b3b;fill-rule:nonzero" transform="matrix(-.02867 .01415 0 .04849 89.091 57.695)"/><path d="m702.177 596.153 512.733 2.672v41.795H700.395l1.782-44.467Z" style="fill-rule:nonzero" transform="matrix(-.02867 .01415 0 .04849 142.573 84.436)"/><path style="fill-rule:nonzero" d="M625.74 644.656h40.354v512.502H625.74z" transform="matrix(-.04849 -.02425 0 .04849 137.245 66.872)"/><path style="fill-rule:nonzero" d="M625.74 644.656h40.354v512.502H625.74z" transform="matrix(-.04849 -.02425 0 .04849 153.258 83.238)"/><path style="fill-rule:nonzero" d="M625.74 644.656h40.354v512.502H625.74z" transform="matrix(-.04849 -.02425 0 .04849 153.13 58.089)"/><path style="fill:#5e3b3b;fill-rule:nonzero" d="M625.74 644.656h40.354v512.502H625.74z" transform="matrix(-.04849 -.02425 0 .04849 100.328 33.765)"/><path style="fill:#5e3b3b;fill-rule:nonzero" d="M625.74 644.656h40.354v512.502H625.74z" transform="matrix(-.04849 -.02425 0 .04849 100.328 57.445)"/><path d="m1216.93 597.043 516.3 2.673-1.78 40.904h-514.52v-43.577Z" style="fill-rule:nonzero" transform="matrix(-.04849 -.02425 0 .04849 139.017 67.953)"/><path d="M84.874 719.659c-27.673-32.367-48.372-71.066-48.372-71.066s9.468-25.702 33.652-19.723c88.562 21.895 329.213 190.181 460.753 368.887l7.553 48.793-60.888-23.81c-51.116-73.986-129.349-165.79-231.58-233.048-42.889-24.02-159.807-107.212-161.118-70.033Z" style="fill-rule:nonzero" transform="matrix(.05118 -.01787 -.03477 -.0338 123.283 138.788)"/><path style="fill-rule:nonzero" d="M1779.88 644.656h40.354v512.502h-40.354z" transform="matrix(-.04849 -.02425 0 .04849 139.246 67.829)"/><path style="fill-rule:nonzero" d="M583.367 1161.19h40.354v512.502h-40.354z" transform="matrix(-.04849 -.02425 0 .04849 135.19 65.32)"/><path d="M664.076 1651.5H1178.6v43.58l-514.524-3.57v-40.01Z" style="fill-rule:nonzero" transform="matrix(-.04849 -.02425 0 .04849 136.56 66.754)"/><path d="M1180.61 1651.5h514.52l-3.56 36.45-505.61 8.02-5.35-44.47Z" style="fill-rule:nonzero" transform="matrix(-.04849 -.02425 0 .04849 135.969 66.112)"/><path style="fill-rule:nonzero" d="M1737.51 1161.19h40.354v512.502h-40.354z" transform="matrix(-.04849 -.02425 0 .04849 137.311 66.754)"/></g></svg>

<?xml version="1.0" encoding="UTF-8" standalone="no"?>
<!DOCTYPE svg PUBLIC "-//W3C//DTD SVG 1.1//EN" "http://www.w3.org/Graphics/SVG/1.1/DTD/svg11.dtd">
<svg height="182" width="160" viewBox="0 0 160 182" version="1.1" xmlns="http://www.w3.org/2000/svg" xmlns:xlink="http://www.w3.org/1999/xlink" xml:space="preserve" xmlns:serif="http://www.serif.com/" style="fill-rule:evenodd;clip-rule:evenodd;stroke-linecap:round;stroke-linejoin:round;stroke-miterlimit:1.5;">
    <g id="BackWalking1" transform="matrix(0.0484901,-0.024245,0,0.0484901,36.5876,66.9689)">
        <g opacity="0.95">
            <g transform="matrix(-7.46545,-3.73272,0,7.46545,5810.11,-2222.19)">
                <path d="M542.173,844.83L543.15,705.205L688.709,632.426L734.246,655.253L735.467,792.673L586.728,868.712L542.173,844.83Z" style="fill:rgb(108,68,68);stroke:black;stroke-width:2.76px;"/>
            </g>
            <g transform="matrix(-1,-1,-4.44089e-16,1,2453.9,1058.21)">
                <rect x="1566" y="856.517" width="86.762" height="86.762" style="fill:rgb(94,59,59);fill-rule:nonzero;"/>
            </g>
            <g transform="matrix(-1,-1,-4.44089e-16,1,2365.54,959.052)">
                <rect x="791.193" y="856.517" width="86.762" height="86.762" style="fill:rgb(94,59,59);fill-rule:nonzero;"/>
            </g>
            <g transform="matrix(-1,-1,0,1,2232.69,1008.4)">
                <path d="M547.667,1527.12C699.538,1703.72 877.32,1891.19 921.035,1685.75C922.733,1672.69 930.526,1648.89 957.508,1669.94C960.31,1672.12 977.426,1702.27 977.426,1702.27C940.907,1832.86 883.325,1861.21 781.97,1803.16C748.777,1784.14 534.069,1580.58 501.272,1521.77" style="fill:rgb(94,59,59);fill-rule:nonzero;"/>
            </g>
            <g transform="matrix(-1,-1,0,1,2262.24,1040.91)">
                <path d="M1382.65,1834.37L1381.55,1683.97C1379.07,1666.49 1395.22,1648.88 1420.91,1669.17C1423.95,1671.57 1436.16,1695.08 1436.16,1695.08L1437.12,1827.97" style="fill:rgb(94,59,59);fill-rule:nonzero;"/>
            </g>
            <g transform="matrix(-1,-1,0,1,2262.24,1040.91)">
                <path d="M1437.12,1827.97L1439.72,2185.78C1438.26,2205.83 1416.23,2209.93 1399.14,2196.43C1396.34,2194.22 1385.11,2170.15 1385.11,2170.15L1382.65,1834.37" style="fill-rule:nonzero;"/>
            </g>
            <g transform="matrix(-1,-1,-4.44089e-16,1,2420.09,1047.9)">
                <path d="M1222.99,1088.56L1037.36,751.595L1075.69,729.4L1122.1,812.127L1323.87,812.127L1370.28,729.4L1408.62,751.595L1222.99,1088.56ZM1142.28,854.499L1222.99,997.757L1303.69,854.499L1142.28,854.499Z" style="fill:rgb(94,59,59);fill-rule:nonzero;"/>
            </g>
            <g transform="matrix(-1,-1,0,1,2337.05,1120.65)">
                <path d="M2012.23,1032.13C1987.7,1055.62 1961.37,1077.01 1933.22,1094.76L1898.95,1078.07L1884.8,1048.2C1933.62,1023.25 1976.32,992.164 2012.9,954.956" style="fill:rgb(94,59,59);fill-rule:nonzero;"/>
            </g>
            <g transform="matrix(-1,-1,0,1,2337.05,1120.65)">
                <path d="M2012.9,954.956C2021.66,946.035 2030.08,936.762 2038.15,927.137C2081.19,876.021 2114.82,805.401 2139.03,715.276L2166.61,713.608L2193.51,739.489C2202.93,744.869 2203.65,757.099 2190.2,762.48C2161.95,840.498 2132.17,914.665 2097.19,960.4C2072.99,991.933 2041.63,1003.97 2012.23,1032.13" style="fill-rule:nonzero;"/>
            </g>
            <g transform="matrix(-1,-1,0,1,2103.8,1062.98)">
                <path d="M702.177,596.153L1214.91,598.825L1214.91,640.62L700.395,640.62L702.177,596.153Z" style="fill-rule:nonzero;"/>
            </g>
            <g transform="matrix(-1,-1,0,1,1903.88,544.921)">
                <path d="M702.177,596.153L1214.91,598.825L1214.91,640.62L700.395,640.62L702.177,596.153Z" style="fill-rule:nonzero;"/>
            </g>
            <g transform="matrix(-1,-1,0,1,2417.69,1053.76)">
                <path d="M702.177,596.153L1214.91,598.825L1214.91,640.62L700.395,640.62L702.177,596.153Z" style="fill-rule:nonzero;"/>
            </g>
            <g transform="matrix(-1,-1,0,1,2432.37,2096.48)">
                <path d="M702.177,596.153L1214.91,598.825L1214.91,640.62L700.395,640.62L702.177,596.153Z" style="fill:rgb(94,59,59);fill-rule:nonzero;"/>
            </g>
            <g transform="matrix(-1,-1,0,1,1917.85,1581.96)">
                <path d="M702.177,596.153L1214.91,598.825L1214.91,640.62L700.395,640.62L702.177,596.153Z" style="fill:rgb(94,59,59);fill-rule:nonzero;"/>
            </g>
            <g transform="matrix(-0.591355,-0.00377795,-2.62615e-16,1,2169.73,389.419)">
                <path d="M702.177,596.153L1214.91,598.825L1214.91,640.62L700.395,640.62L702.177,596.153Z" style="fill-rule:nonzero;"/>
            </g>
            <g transform="matrix(-0.591355,-0.00377795,-2.62615e-16,1,1067.38,-686.905)">
                <path d="M702.177,596.153L1214.91,598.825L1214.91,640.62L700.395,640.62L702.177,596.153Z" style="fill-rule:nonzero;"/>
            </g>
            <g transform="matrix(-0.591355,-0.00377795,-2.62615e-16,1,1082.77,350.13)">
                <path d="M702.177,596.153L1214.91,598.825L1214.91,640.62L700.395,640.62L702.177,596.153Z" style="fill:rgb(94,59,59);fill-rule:nonzero;"/>
            </g>
            <g transform="matrix(-0.591355,-0.00377795,-2.62615e-16,1,2185.72,1453.08)">
                <path d="M702.177,596.153L1214.91,598.825L1214.91,640.62L700.395,640.62L702.177,596.153Z" style="fill-rule:nonzero;"/>
            </g>
            <g transform="matrix(-1,-1,0,1,2075.84,1035.91)">
                <rect x="625.74" y="644.656" width="40.354" height="512.502" style="fill-rule:nonzero;"/>
            </g>
            <g transform="matrix(-1,-1,0,1,2406.07,1538.54)">
                <rect x="625.74" y="644.656" width="40.354" height="512.502" style="fill-rule:nonzero;"/>
            </g>
            <g transform="matrix(-1,-1,0,1,2403.44,1018.59)">
                <rect x="625.74" y="644.656" width="40.354" height="512.502" style="fill-rule:nonzero;"/>
            </g>
            <g transform="matrix(-1,-1,2.76056e-31,1,1314.51,-27.4928)">
                <rect x="625.74" y="644.656" width="40.354" height="512.502" style="fill:rgb(94,59,59);fill-rule:nonzero;"/>
            </g>
            <g transform="matrix(-1,-1,0,1,1314.51,460.837)">
                <rect x="625.74" y="644.656" width="40.354" height="512.502" style="fill:rgb(94,59,59);fill-rule:nonzero;"/>
            </g>
            <g transform="matrix(-1,-1,0,1,2112.37,1076.47)">
                <path d="M1216.93,597.043L1733.23,599.716L1731.45,640.62L1216.93,640.62L1216.93,597.043Z" style="fill-rule:nonzero;"/>
            </g>
            <g transform="matrix(1.05552,0.159137,-0.717105,-1.05552,1787.89,2375.05)">
                <path d="M84.874,719.659C57.201,687.292 36.502,648.593 36.502,648.593C36.502,648.593 45.97,622.891 70.154,628.87C158.716,650.765 399.367,819.051 530.907,997.757L538.46,1046.55L477.572,1022.74C426.456,948.754 348.223,856.95 245.992,789.692C203.103,765.672 86.185,682.48 84.874,719.659Z" style="fill-rule:nonzero;"/>
            </g>
            <g transform="matrix(-1,-1,0,1,2117.1,1076.28)">
                <rect x="1779.88" y="644.656" width="40.354" height="512.502" style="fill-rule:nonzero;"/>
            </g>
            <g transform="matrix(-1,-1,0,1,2033.47,982.715)">
                <rect x="583.367" y="1161.19" width="40.354" height="512.502" style="fill-rule:nonzero;"/>
            </g>
            <g transform="matrix(-1,-1,0,1,2061.69,1026.41)">
                <path d="M664.076,1651.5L1178.6,1651.5L1178.6,1695.08L664.076,1691.51L664.076,1651.5Z" style="fill-rule:nonzero;"/>
            </g>
            <g transform="matrix(-1,-1,0,1,2049.52,1007.09)">
                <path d="M1180.61,1651.5L1695.13,1651.5L1691.57,1687.95L1185.96,1695.97L1180.61,1651.5Z" style="fill-rule:nonzero;"/>
            </g>
            <g transform="matrix(-1,-1,0,1,2077.2,1034.17)">
                <rect x="1737.51" y="1161.19" width="40.354" height="512.502" style="fill-rule:nonzero;"/>
            </g>
        </g>
    </g>
</svg>
